X: 8
T: The Hag At The Churn
R: jig
M: 6/8
L: 1/8
K: Dmix
|:~A2G ADD|~A2G Adc|~A2G ADD|EFG EFG:||
||AdB c3|Add efg|AdB c2G|E3 GED|
AdB c3|Add efg|fed edB|cEE GED||


Tune 829	Setting 829

